assets/icons/qvision/contact_page.svg

<svg xmlns="http://www.w3.org/2000/svg" enable-background="new 0 0 24 24" height="24" viewBox="0 0 24 24" width="24"><rect fill="none" height="24" width="24"/><path d="M14,2H6C4.9,2,4,2.9,4,4v16c0,1.1,0.9,2,2,2h12c1.1,0,2-0.9,2-2V8L14,2z M12,10c1.1,0,2,0.9,2,2c0,1.1-0.9,2-2,2s-2-0.9-2-2 C10,10.9,10.9,10,12,10z M16,18H8v-0.57c0-0.81,0.48-1.53,1.22-1.85C10.07,15.21,11.01,15,12,15c0.99,0,1.93,0.21,2.78,0.58 C15.52,15.9,16,16.62,16,17.43V18z"/></svg>

<svg width="24" height="24" viewBox="0 0 24 24" fill="none" xmlns="http://www.w3.org/2000/svg">
<g clip-path="url(#clip0_147_4051)">
<path d="M14 2H6C4.9 2 4 2.9 4 4V20C4 21.1 4.9 22 6 22H18C19.1 22 20 21.1 20 20V8L14 2ZM12 10C13.1 10 14 10.9 14 12C14 13.1 13.1 14 12 14C10.9 14 10 13.1 10 12C10 10.9 10.9 10 12 10ZM16 18H8V17.43C8 16.62 8.48 15.9 9.22 15.58C10.07 15.21 11.01 15 12 15C12.99 15 13.93 15.21 14.78 15.58C15.52 15.9 16 16.62 16 17.43V18Z" fill="#323232"/>
</g>
<defs>
<clipPath id="clip0_147_4051">
<rect width="24" height="24" fill="white"/>
</clipPath>
</defs>
</svg>
